X: 3013
M: 3/2
L: 1/4
K: Bb
|:\
fgab2a | gfed2b | abgfga | a3g3 |\
fgbbdg | fgdc2d | BBffdg | c3HB3 |]


